inst/app/www/img/forma-Inferior-izquirdo.svg

<svg id="Capa_1" data-name="Capa 1" xmlns="http://www.w3.org/2000/svg" viewBox="0 0 222 496">
    <defs>
        <style>
            .cls-1 {
                fill: #e5e5e5;
            }

            .cls-1,
            .cls-2 {
                fill-rule: evenodd;
            }

            .cls-2 {
                /* DEFAULT */
                fill: #3b58b2;
                /* MORENA */
                fill: #cc3a00;
                /* MOVCIUDADANO */
                fill: #c90;
                /* PAN */
                fill: #3b58b2;
                /* PRD */
                fill: #c90;
                /* PRI */
                fill: #cc3a00;
            }
        </style>
    </defs>
    <title>forma-Inferior-izquirdo</title>
    <g id="Capa_1-2" data-name="Capa 1-2">
        <g id="forma-Inferior-izquirdo">
            <g id="Shape">
                <path class="cls-1"
                    d="M0,496H222V289.42a55.55,55.55,0,0,0-55.5-55.58A55.55,55.55,0,0,1,111,178.26h0v-67.1A111.08,111.08,0,0,0,0,0H0Z"
                    transform="translate(0 0)" />
            </g>
            <path id="Combined-Shape" class="cls-2"
                d="M85.19,314.68a3.16,3.16,0,1,0,3.18,3.16,3.15,3.15,0,0,0-3.18-3.16Zm20.94,0a3.16,3.16,0,1,0,3.19,3.16,3.15,3.15,0,0,0-3.19-3.16Zm20.94,0a3.16,3.16,0,1,0,3.19,3.16,3.15,3.15,0,0,0-3.19-3.16Zm21.86,0a3.16,3.16,0,1,0,3.18,3.16,3.15,3.15,0,0,0-3.18-3.16Zm20.94,0a3.16,3.16,0,1,0,3.19,3.16,3.15,3.15,0,0,0-3.19-3.16Zm20.94,0a3.16,3.16,0,1,0,3.19,3.16,3.15,3.15,0,0,0-3.19-3.16Zm-84.68-22.14a3.16,3.16,0,1,0,3.19,3.16,3.15,3.15,0,0,0-3.19-3.16Zm42.8,0a3.16,3.16,0,1,0,3.18,3.16,3.15,3.15,0,0,0-3.18-3.16Zm-63.74,0a3.16,3.16,0,1,0,3.18,3.16,3.15,3.15,0,0,0-3.18-3.16Zm84.68,0a3.16,3.16,0,1,0,3.19,3.16,3.15,3.15,0,0,0-3.19-3.16Zm-42.8,0a3.16,3.16,0,1,0,3.19,3.16,3.15,3.15,0,0,0-3.19-3.16Zm63.74,0A3.16,3.16,0,1,0,194,295.7a3.15,3.15,0,0,0-3.19-3.16ZM85.19,270.41a3.16,3.16,0,1,0,3.18,3.16,3.15,3.15,0,0,0-3.18-3.16Zm20.94,0a3.16,3.16,0,1,0,3.19,3.16,3.15,3.15,0,0,0-3.19-3.16Zm20.94,0a3.16,3.16,0,1,0,3.19,3.16,3.15,3.15,0,0,0-3.19-3.16Zm21.86,0a3.16,3.16,0,1,0,3.18,3.16,3.15,3.15,0,0,0-3.18-3.16Zm20.94,0a3.16,3.16,0,1,0,3.19,3.16,3.15,3.15,0,0,0-3.19-3.16Zm20.94,0a3.16,3.16,0,1,0,3.19,3.16,3.15,3.15,0,0,0-3.19-3.16ZM85.19,248.27a3.16,3.16,0,1,0,3.18,3.16A3.15,3.15,0,0,0,85.19,248.27Zm20.94,0a3.16,3.16,0,1,0,3.19,3.16A3.15,3.15,0,0,0,106.13,248.27Zm20.94,0a3.16,3.16,0,1,0,3.19,3.16,3.15,3.15,0,0,0-3.19-3.16Zm21.86,0a3.16,3.16,0,1,0,3.18,3.16,3.15,3.15,0,0,0-3.18-3.16Zm20.94,0a3.16,3.16,0,1,0,3.19,3.16,3.15,3.15,0,0,0-3.19-3.16Zm20.94,0a3.16,3.16,0,1,0,3.19,3.16,3.15,3.15,0,0,0-3.19-3.16ZM85.19,226.14a3.16,3.16,0,1,0,3.18,3.16,3.15,3.15,0,0,0-3.18-3.16Zm20.94,0a3.16,3.16,0,1,0,3.19,3.16,3.15,3.15,0,0,0-3.19-3.16Zm20.94,0a3.16,3.16,0,1,0,3.19,3.16,3.15,3.15,0,0,0-3.19-3.16Zm21.86,0a3.16,3.16,0,1,0,3.18,3.16,3.15,3.15,0,0,0-3.18-3.16Zm20.94,0a3.16,3.16,0,1,0,3.19,3.16,3.15,3.15,0,0,0-3.19-3.16Zm20.94,0A3.16,3.16,0,1,0,194,229.3a3.15,3.15,0,0,0-3.19-3.16ZM148.93,204a3.16,3.16,0,1,0,3.18,3.16A3.15,3.15,0,0,0,148.93,204Zm-63.74,0a3.16,3.16,0,1,0,3.18,3.16A3.15,3.15,0,0,0,85.19,204Zm41.88,0a3.16,3.16,0,1,0,3.19,3.16,3.15,3.15,0,0,0-3.19-3.16Zm42.8,0a3.16,3.16,0,1,0,3.19,3.16A3.15,3.15,0,0,0,169.87,204Zm-63.74,0a3.16,3.16,0,1,0,3.19,3.16A3.15,3.15,0,0,0,106.13,204Zm84.68,0a3.16,3.16,0,1,0,3.19,3.16,3.15,3.15,0,0,0-3.19-3.16ZM85.19,179.68a3.16,3.16,0,1,0,3.18,3.16,3.15,3.15,0,0,0-3.18-3.16Zm105.62,0a3.16,3.16,0,1,0,3.19,3.16,3.15,3.15,0,0,0-3.19-3.16Zm-20.94,0a3.16,3.16,0,1,0,3.19,3.16,3.15,3.15,0,0,0-3.19-3.16Zm-20.94,0a3.16,3.16,0,1,0,3.18,3.16,3.15,3.15,0,0,0-3.18-3.16Zm-21.86,0a3.16,3.16,0,1,0,3.19,3.16,3.15,3.15,0,0,0-3.19-3.16Zm-20.94,0a3.16,3.16,0,1,0,3.19,3.16,3.15,3.15,0,0,0-3.19-3.16Zm42.8-22.14a3.16,3.16,0,1,0,3.18,3.16A3.15,3.15,0,0,0,148.93,157.54Zm-42.8,0a3.16,3.16,0,1,0,3.19,3.16A3.15,3.15,0,0,0,106.13,157.54Zm84.68,0A3.16,3.16,0,1,0,194,160.7a3.15,3.15,0,0,0-3.19-3.16Zm-20.94,0a3.16,3.16,0,1,0,3.19,3.16A3.15,3.15,0,0,0,169.87,157.54Zm-42.8,0a3.16,3.16,0,1,0,3.19,3.16,3.15,3.15,0,0,0-3.19-3.16Zm-41.88,0a3.16,3.16,0,1,0,3.18,3.16,3.15,3.15,0,0,0-3.18-3.16Zm20.94-22.13a3.16,3.16,0,1,0,3.19,3.16,3.15,3.15,0,0,0-3.19-3.16Zm63.74,0a3.16,3.16,0,1,0,3.19,3.16,3.15,3.15,0,0,0-3.19-3.16Zm-42.8,0a3.16,3.16,0,1,0,3.19,3.16,3.15,3.15,0,0,0-3.19-3.16Zm21.86,0a3.16,3.16,0,1,0,3.18,3.16,3.15,3.15,0,0,0-3.18-3.16Zm-63.74,0a3.16,3.16,0,1,0,3.18,3.16,3.15,3.15,0,0,0-3.18-3.16Zm105.62,0a3.16,3.16,0,1,0,3.19,3.16,3.15,3.15,0,0,0-3.19-3.16ZM85.19,113.27a3.16,3.16,0,1,0,3.18,3.16A3.15,3.15,0,0,0,85.19,113.27Zm20.94,0a3.16,3.16,0,1,0,3.19,3.16A3.15,3.15,0,0,0,106.13,113.27Zm20.94,0a3.16,3.16,0,1,0,3.19,3.16,3.15,3.15,0,0,0-3.19-3.16Zm21.86,0a3.16,3.16,0,1,0,3.18,3.16,3.15,3.15,0,0,0-3.18-3.16Zm20.94,0a3.16,3.16,0,1,0,3.19,3.16,3.15,3.15,0,0,0-3.19-3.16ZM85.19,91.14a3.16,3.16,0,1,0,3.18,3.16,3.15,3.15,0,0,0-3.18-3.16Zm20.94,0a3.16,3.16,0,1,0,3.19,3.16,3.15,3.15,0,0,0-3.19-3.16Zm20.94,0a3.16,3.16,0,1,0,3.19,3.16,3.15,3.15,0,0,0-3.19-3.16Zm21.86,0a3.16,3.16,0,1,0,3.18,3.16,3.15,3.15,0,0,0-3.18-3.16ZM85.19,69a3.16,3.16,0,1,0,3.18,3.16A3.15,3.15,0,0,0,85.19,69Zm20.94,0a3.16,3.16,0,1,0,3.19,3.16A3.15,3.15,0,0,0,106.13,69Zm20.94,0a3.16,3.16,0,1,0,3.19,3.16A3.15,3.15,0,0,0,127.07,69Z"
                transform="translate(0 0)" />
        </g>
    </g>
</svg>

<svg xmlns="http://www.w3.org/2000/svg" viewBox="0 0 222 496"><defs><style>
/* PAN */
/*.cls-1{fill:#ececec;}
.cls-2{fill:#1e50a9;}*/

/* PRI */
/*.cls-1{fill:#ececec;}
.cls-2{fill:#c00301;}*/

/* MOVIMIENTO */
.cls-1{fill:#ff8201;}
.cls-2{fill:#ececec;}

/* MORENA */
/*.cls-1{fill:#ececec;}
.cls-2{fill:#b92207;}*/

.cls-1,.cls-2{fill-rule:evenodd;}

</style></defs><title>forma-Inferior-izquirdo</title><g id="Capa_2" data-name="Capa 2"><g id="Capa_1-2" data-name="Capa 1"><g id="forma-Inferior-izquirdo"><g id="Shape"><path class="cls-1" d="M0,496H222V289.42a55.55,55.55,0,0,0-55.5-55.58A55.54,55.54,0,0,1,111,178.26v-67.1A111.08,111.08,0,0,0,0,0Z"/></g><path id="Combined-Shape" class="cls-2" d="M85.19,314.68a3.16,3.16,0,1,0,3.18,3.16A3.17,3.17,0,0,0,85.19,314.68Zm20.94,0a3.16,3.16,0,1,0,3.19,3.16A3.17,3.17,0,0,0,106.13,314.68Zm20.94,0a3.16,3.16,0,1,0,3.19,3.16A3.16,3.16,0,0,0,127.07,314.68Zm21.86,0a3.16,3.16,0,1,0,3.18,3.16A3.17,3.17,0,0,0,148.93,314.68Zm20.94,0a3.16,3.16,0,1,0,3.19,3.16A3.17,3.17,0,0,0,169.87,314.68Zm20.94,0a3.16,3.16,0,1,0,3.19,3.16A3.16,3.16,0,0,0,190.81,314.68Zm-84.68-22.14a3.16,3.16,0,1,0,3.19,3.16A3.18,3.18,0,0,0,106.13,292.54Zm42.8,0a3.16,3.16,0,1,0,3.18,3.16A3.18,3.18,0,0,0,148.93,292.54Zm-63.74,0a3.16,3.16,0,1,0,3.18,3.16A3.18,3.18,0,0,0,85.19,292.54Zm84.68,0a3.16,3.16,0,1,0,3.19,3.16A3.18,3.18,0,0,0,169.87,292.54Zm-42.8,0a3.16,3.16,0,1,0,3.19,3.16A3.17,3.17,0,0,0,127.07,292.54Zm63.74,0A3.16,3.16,0,1,0,194,295.7,3.17,3.17,0,0,0,190.81,292.54ZM85.19,270.41a3.16,3.16,0,1,0,3.18,3.16A3.17,3.17,0,0,0,85.19,270.41Zm20.94,0a3.16,3.16,0,1,0,3.19,3.16A3.17,3.17,0,0,0,106.13,270.41Zm20.94,0a3.16,3.16,0,1,0,3.19,3.16A3.16,3.16,0,0,0,127.07,270.41Zm21.86,0a3.16,3.16,0,1,0,3.18,3.16A3.17,3.17,0,0,0,148.93,270.41Zm20.94,0a3.16,3.16,0,1,0,3.19,3.16A3.17,3.17,0,0,0,169.87,270.41Zm20.94,0a3.16,3.16,0,1,0,3.19,3.16A3.16,3.16,0,0,0,190.81,270.41ZM85.19,248.27a3.16,3.16,0,1,0,3.18,3.16A3.18,3.18,0,0,0,85.19,248.27Zm20.94,0a3.16,3.16,0,1,0,3.19,3.16A3.18,3.18,0,0,0,106.13,248.27Zm20.94,0a3.16,3.16,0,1,0,3.19,3.16A3.17,3.17,0,0,0,127.07,248.27Zm21.86,0a3.16,3.16,0,1,0,3.18,3.16A3.18,3.18,0,0,0,148.93,248.27Zm20.94,0a3.16,3.16,0,1,0,3.19,3.16A3.18,3.18,0,0,0,169.87,248.27Zm20.94,0a3.16,3.16,0,1,0,3.19,3.16A3.17,3.17,0,0,0,190.81,248.27ZM85.19,226.14a3.16,3.16,0,1,0,3.18,3.16A3.17,3.17,0,0,0,85.19,226.14Zm20.94,0a3.16,3.16,0,1,0,3.19,3.16A3.17,3.17,0,0,0,106.13,226.14Zm20.94,0a3.16,3.16,0,1,0,3.19,3.16A3.16,3.16,0,0,0,127.07,226.14Zm21.86,0a3.16,3.16,0,1,0,3.18,3.16A3.17,3.17,0,0,0,148.93,226.14Zm20.94,0a3.16,3.16,0,1,0,3.19,3.16A3.17,3.17,0,0,0,169.87,226.14Zm20.94,0A3.16,3.16,0,1,0,194,229.3,3.16,3.16,0,0,0,190.81,226.14ZM148.93,204a3.16,3.16,0,1,0,3.18,3.16A3.18,3.18,0,0,0,148.93,204Zm-63.74,0a3.16,3.16,0,1,0,3.18,3.16A3.18,3.18,0,0,0,85.19,204Zm41.88,0a3.16,3.16,0,1,0,3.19,3.16A3.17,3.17,0,0,0,127.07,204Zm42.8,0a3.16,3.16,0,1,0,3.19,3.16A3.18,3.18,0,0,0,169.87,204Zm-63.74,0a3.16,3.16,0,1,0,3.19,3.16A3.18,3.18,0,0,0,106.13,204Zm84.68,0a3.16,3.16,0,1,0,3.19,3.16A3.17,3.17,0,0,0,190.81,204ZM85.19,179.68a3.16,3.16,0,1,0,3.18,3.16A3.17,3.17,0,0,0,85.19,179.68Zm105.62,0a3.16,3.16,0,1,0,3.19,3.16A3.16,3.16,0,0,0,190.81,179.68Zm-20.94,0a3.16,3.16,0,1,0,3.19,3.16A3.17,3.17,0,0,0,169.87,179.68Zm-20.94,0a3.16,3.16,0,1,0,3.18,3.16A3.17,3.17,0,0,0,148.93,179.68Zm-21.86,0a3.16,3.16,0,1,0,3.19,3.16A3.16,3.16,0,0,0,127.07,179.68Zm-20.94,0a3.16,3.16,0,1,0,3.19,3.16A3.17,3.17,0,0,0,106.13,179.68Zm42.8-22.14a3.16,3.16,0,1,0,3.18,3.16A3.18,3.18,0,0,0,148.93,157.54Zm-42.8,0a3.16,3.16,0,1,0,3.19,3.16A3.18,3.18,0,0,0,106.13,157.54Zm84.68,0A3.16,3.16,0,1,0,194,160.7,3.17,3.17,0,0,0,190.81,157.54Zm-20.94,0a3.16,3.16,0,1,0,3.19,3.16A3.18,3.18,0,0,0,169.87,157.54Zm-42.8,0a3.16,3.16,0,1,0,3.19,3.16A3.17,3.17,0,0,0,127.07,157.54Zm-41.88,0a3.16,3.16,0,1,0,3.18,3.16A3.18,3.18,0,0,0,85.19,157.54Zm20.94-22.13a3.16,3.16,0,1,0,3.19,3.16A3.17,3.17,0,0,0,106.13,135.41Zm63.74,0a3.16,3.16,0,1,0,3.19,3.16A3.17,3.17,0,0,0,169.87,135.41Zm-42.8,0a3.16,3.16,0,1,0,3.19,3.16A3.16,3.16,0,0,0,127.07,135.41Zm21.86,0a3.16,3.16,0,1,0,3.18,3.16A3.17,3.17,0,0,0,148.93,135.41Zm-63.74,0a3.16,3.16,0,1,0,3.18,3.16A3.17,3.17,0,0,0,85.19,135.41Zm105.62,0a3.16,3.16,0,1,0,3.19,3.16A3.16,3.16,0,0,0,190.81,135.41ZM85.19,113.27a3.16,3.16,0,1,0,3.18,3.16A3.18,3.18,0,0,0,85.19,113.27Zm20.94,0a3.16,3.16,0,1,0,3.19,3.16A3.18,3.18,0,0,0,106.13,113.27Zm20.94,0a3.16,3.16,0,1,0,3.19,3.16A3.17,3.17,0,0,0,127.07,113.27Zm21.86,0a3.16,3.16,0,1,0,3.18,3.16A3.18,3.18,0,0,0,148.93,113.27Zm20.94,0a3.16,3.16,0,1,0,3.19,3.16A3.18,3.18,0,0,0,169.87,113.27ZM85.19,91.14a3.16,3.16,0,1,0,3.18,3.16A3.17,3.17,0,0,0,85.19,91.14Zm20.94,0a3.16,3.16,0,1,0,3.19,3.16A3.17,3.17,0,0,0,106.13,91.14Zm20.94,0a3.16,3.16,0,1,0,3.19,3.16A3.16,3.16,0,0,0,127.07,91.14Zm21.86,0a3.16,3.16,0,1,0,3.18,3.16A3.17,3.17,0,0,0,148.93,91.14ZM85.19,69a3.16,3.16,0,1,0,3.18,3.16A3.18,3.18,0,0,0,85.19,69Zm20.94,0a3.16,3.16,0,1,0,3.19,3.16A3.18,3.18,0,0,0,106.13,69Zm20.94,0a3.16,3.16,0,1,0,3.19,3.16A3.17,3.17,0,0,0,127.07,69Z"/></g></g></g></svg>
